public/imgs/multi-user-icon.svg

<?xml version="1.0" encoding="UTF-8" standalone="no"?>
<!-- Generator: Adobe Illustrator 24.3.0, SVG Export Plug-In . SVG Version: 6.00 Build 0)  -->

<svg
   version="1.1"
   id="Layer_1"
   x="0px"
   y="0px"
   viewBox="0 0 857.9 626"
   style="enable-background:new 0 0 857.9 626;"
   xml:space="preserve"
   sodipodi:docname="multi-user-icon.svg"
   inkscape:version="1.1.2 (0a00cf5339, 2022-02-04)"
   xmlns:inkscape="http://www.inkscape.org/namespaces/inkscape"
   xmlns:sodipodi="http://sodipodi.sourceforge.net/DTD/sodipodi-0.dtd"
   xmlns="http://www.w3.org/2000/svg"
   xmlns:svg="http://www.w3.org/2000/svg"><defs
   id="defs11" /><sodipodi:namedview
   id="namedview9"
   pagecolor="#ffffff"
   bordercolor="#666666"
   borderopacity="1.0"
   inkscape:pageshadow="2"
   inkscape:pageopacity="0.0"
   inkscape:pagecheckerboard="0"
   showgrid="false"
   inkscape:zoom="0.66773163"
   inkscape:cx="157.99761"
   inkscape:cy="404.35407"
   inkscape:window-width="1920"
   inkscape:window-height="1019"
   inkscape:window-x="0"
   inkscape:window-y="29"
   inkscape:window-maximized="1"
   inkscape:current-layer="Layer_1" />


<g
   id="g16"
   transform="translate(-60.829,-13.157)"><path
     d="m 555.7,323 c -83.5,0 -151.4,-67.9 -151.4,-151.4 0,-83.5 67.9,-151.4 151.4,-151.4 83.5,0 151.4,67.9 151.4,151.4 0,83.5 -67.9,151.4 -151.4,151.4 z m 0,-275.4 c -68.4,0 -124,55.6 -124,124 0,68.4 55.6,124 124,124 68.4,0 124,-55.6 124,-124 0,-68.4 -55.6,-124 -124,-124 z M 281,626 c 12.5,-143 130.9,-255.4 274.7,-255.4 143.8,0 262.2,112.5 274.7,255.4 h 27.5 C 845.3,467.9 714.6,343.2 555.7,343.2 396.8,343.2 266.1,467.9 253.5,626 Z"
     id="path2" /><path
     d="m 462,318.5 c -13.3,3.8 -27.3,5.9 -41.7,5.9 C 336.9,324.4 269,256.5 269,173 269,89.5 336.9,21.6 420.3,21.7 c 13.4,0 26.3,1.7 38.7,5 -9.9,6.7 -19.2,14.3 -27.5,22.8 -3.7,-0.3 -7.4,-0.5 -11.1,-0.5 -68.3,0 -124,55.6 -124,124 0,68.4 55.6,124 124,124 4.3,0 8.8,-0.4 13.2,-1.2 8.6,8.5 18.2,16.2 28.4,22.7 z"
     id="path4" /><path
     d="M 399.4,356.3 C 374.6,370.6 352,388.4 332.3,409 250.6,452 192.7,535.5 184.1,633.1 h -27.5 c 11,-137.8 111.8,-250.3 242.8,-276.8 z"
     id="path6" /></g>
</svg>

<?xml version="1.0" encoding="utf-8"?>
<!-- Generator: Adobe Illustrator 24.3.0, SVG Export Plug-In . SVG Version: 6.00 Build 0)  -->
<svg version="1.1" id="Layer_1" xmlns="http://www.w3.org/2000/svg" xmlns:xlink="http://www.w3.org/1999/xlink" x="0px" y="0px"
	 viewBox="0 0 857.9 626" style="enable-background:new 0 0 857.9 626;" xml:space="preserve">
<path d="M555.7,323c-83.5,0-151.4-67.9-151.4-151.4S472.2,20.2,555.7,20.2s151.4,67.9,151.4,151.4S639.2,323,555.7,323z M555.7,47.6
	c-68.4,0-124,55.6-124,124s55.6,124,124,124s124-55.6,124-124S624.1,47.6,555.7,47.6z M281,626c12.5-143,130.9-255.4,274.7-255.4
	S817.9,483.1,830.4,626h27.5c-12.6-158.1-143.3-282.8-302.2-282.8S266.1,467.9,253.5,626H281L281,626z"/>
<path d="M462,318.5c-13.3,3.8-27.3,5.9-41.7,5.9C336.9,324.4,269,256.5,269,173S336.9,21.6,420.3,21.7c13.4,0,26.3,1.7,38.7,5
	c-9.9,6.7-19.2,14.3-27.5,22.8c-3.7-0.3-7.4-0.5-11.1-0.5c-68.3,0-124,55.6-124,124s55.6,124,124,124c4.3,0,8.8-0.4,13.2-1.2
	C442.2,304.3,451.8,312,462,318.5z"/>
<path d="M399.4,356.3c-24.8,14.3-47.4,32.1-67.1,52.7c-81.7,43-139.6,126.5-148.2,224.1h-27.5C167.6,495.3,268.4,382.8,399.4,356.3z
	"/>
</svg>
